epam-assets/icon-sources/18/internal-logo/technology.svg

<svg width="18" height="18" viewBox="0 0 18 18" fill="none" xmlns="http://www.w3.org/2000/svg">
<g id="18/internal-logo/technology">
<path id="icon" fill-rule="evenodd" clip-rule="evenodd" d="M15.6771 6.79545C15.6771 6.95935 15.5443 7.09225 15.3804 7.09235H13.7692V8.5232H15.3804C15.5442 8.5232 15.6771 8.65605 15.6771 8.8199V9.18045C15.6771 9.3443 15.5442 9.47715 15.3804 9.47715H13.7692V10.908H15.3804C15.5443 10.9081 15.6771 11.041 15.6771 11.2049V11.5653C15.6771 11.6439 15.6459 11.7194 15.5902 11.7751C15.5346 11.8307 15.4591 11.8619 15.3804 11.8619H13.7692V11.9893C13.7692 12.9726 12.9721 13.7697 11.9888 13.7697H11.8615V15.3809C11.8615 15.5448 11.7286 15.6776 11.5647 15.6776H11.2044C11.0405 15.6776 10.9077 15.5448 10.9075 15.3809V13.7697H9.47665V15.3809C9.47665 15.5448 9.3438 15.6776 9.17995 15.6776H8.8194C8.65555 15.6776 8.52275 15.5448 8.52275 15.3809V13.7697H7.09185V15.3809C7.09175 15.5448 6.95885 15.6776 6.79495 15.6776H6.4346C6.27075 15.6776 6.13795 15.5448 6.13795 15.3809V13.7697H6.0106C5.02725 13.7697 4.2301 12.9726 4.2301 11.9893V11.8619H2.61896C2.4551 11.8619 2.32227 11.7291 2.32227 11.5653V11.2049C2.32227 11.041 2.45507 10.9081 2.61896 10.908H4.2301V9.47715H2.61896C2.4551 9.47715 2.32227 9.3443 2.32227 9.18045V8.8199C2.32227 8.65605 2.4551 8.5232 2.61896 8.5232H4.2301V7.09235H2.61896C2.45507 7.09225 2.32227 6.95935 2.32227 6.79545V6.4351C2.32227 6.27125 2.4551 6.1384 2.61896 6.1384H4.2301V6.0111C4.2301 5.02775 5.02725 4.23059 6.0106 4.23059H6.13795V2.61944C6.13795 2.45558 6.27075 2.32275 6.4346 2.32275H6.79495C6.95885 2.32275 7.09175 2.45555 7.09185 2.61944V4.23059H8.52275V2.61944C8.52275 2.45558 8.65555 2.32275 8.8194 2.32275H9.17995C9.3438 2.32275 9.47665 2.45558 9.47665 2.61944V4.23059H10.9075V2.61944C10.9077 2.45555 11.0405 2.32275 11.2044 2.32275H11.5647C11.6434 2.32275 11.7189 2.35401 11.7746 2.40965C11.8302 2.46529 11.8615 2.54075 11.8615 2.61944V4.23059H11.9888C12.9721 4.23059 13.7692 5.02775 13.7692 6.0111V6.1384H15.3804C15.5442 6.1384 15.6771 6.27125 15.6771 6.4351V6.79545ZM11.9888 12.8201C12.4474 12.8196 12.8191 12.4479 12.8196 11.9893V6.0111C12.8191 5.55245 12.4474 5.18075 11.9888 5.1802H6.0106C5.55195 5.18075 5.18025 5.55245 5.17975 6.0111V11.9893C5.18025 12.4479 5.55195 12.8196 6.0106 12.8201H11.9888ZM6.72185 6.08935H11.2772C11.6265 6.0901 11.9095 6.3731 11.9102 6.72235V11.2777C11.9095 11.6269 11.6265 11.9099 11.2772 11.9107H6.72185C6.3726 11.9099 6.08965 11.6269 6.08885 11.2777V6.72235C6.08965 6.3731 6.3726 6.0901 6.72185 6.08935ZM11.3147 8.77185V7.3838L11.3143 7.25525H11.188L9.91954 7.251C9.92452 7.25077 9.92869 7.25065 9.93188 7.25065H9.8131L9.91954 7.251C9.8707 7.25328 9.74477 7.26641 9.7232 7.2882C9.6993 7.3123 9.68585 7.34505 9.6858 7.3792V7.726C9.6858 7.797 9.74265 7.85455 9.8127 7.85455H10.2847L9.14395 9.14365C9.13225 9.1567 9.1158 9.1644 9.0984 9.1649C9.081 9.1654 9.06415 9.15865 9.0518 9.14625L8.5079 8.59505C8.45855 8.5451 8.3786 8.5451 8.3292 8.59505L6.7063 10.2408C6.65725 10.2909 6.65725 10.3717 6.7063 10.4218L6.97815 10.6972C7.0276 10.7469 7.1074 10.7469 7.15685 10.6972L8.36595 9.47315C8.3957 9.4431 8.4438 9.4431 8.47355 9.47315L9.02815 10.0352C9.0529 10.0602 9.08675 10.0738 9.1217 10.0728C9.15665 10.0717 9.18965 10.0561 9.21285 10.0295L10.719 8.30535V8.77205C10.7191 8.84265 10.7754 8.89995 10.8451 8.9004H11.188C11.258 8.9003 11.3147 8.8428 11.3147 8.77185Z" fill="#6C6F80"/>
</g>
</svg>

<svg xmlns="http://www.w3.org/2000/svg" width="18" height="18" fill="none" viewBox="0 0 18 18">
  <path fill="#6C6F80" fill-rule="evenodd" d="M15.677 6.795a.297.297 0 0 1-.297.297h-1.61v1.431h1.61c.164 0 .297.133.297.297v.36a.297.297 0 0 1-.297.297h-1.61v1.431h1.61c.164 0 .297.133.297.297v.36a.297.297 0 0 1-.297.297h-1.61v.127a1.78 1.78 0 0 1-1.781 1.78h-.128v1.612a.297.297 0 0 1-.296.297h-.36a.297.297 0 0 1-.297-.297V13.77H9.477v1.61a.297.297 0 0 1-.297.298h-.36a.297.297 0 0 1-.297-.297V13.77H7.092v1.61a.297.297 0 0 1-.297.298h-.36a.297.297 0 0 1-.297-.297V13.77h-.127a1.78 1.78 0 0 1-1.78-1.78v-.128H2.618a.297.297 0 0 1-.297-.297v-.36c0-.164.133-.297.297-.297H4.23v-1.43H2.62a.297.297 0 0 1-.297-.298v-.36c0-.164.133-.297.297-.297h1.61v-1.43H2.62a.297.297 0 0 1-.297-.298v-.36c0-.164.133-.297.297-.297h1.61v-.127c0-.983.797-1.78 1.78-1.78h.128V2.619c0-.163.133-.296.297-.296h.36c.164 0 .297.133.297.296v1.612h1.43V2.619c0-.163.134-.296.297-.296h.36c.165 0 .298.133.298.296v1.612h1.43V2.619c0-.163.133-.296.297-.296h.36a.297.297 0 0 1 .297.296v1.612h.128c.983 0 1.78.797 1.78 1.78v.127h1.611c.164 0 .297.133.297.297v.36ZM11.99 12.82a.83.83 0 0 0 .83-.83V6.01a.832.832 0 0 0-.83-.83H6.01a.832.832 0 0 0-.831.83v5.978c0 .459.372.83.83.831h5.979ZM6.722 6.09h4.555c.35 0 .633.283.633.632v4.556a.634.634 0 0 1-.633.633H6.722a.635.635 0 0 1-.633-.633V6.722c0-.349.284-.632.633-.633Zm4.593 2.682V7.255h-.127L9.92 7.251h.012-.119.107c-.05.002-.175.015-.197.037a.13.13 0 0 0-.037.091v.347c0 .071.057.129.127.129h.472L9.144 9.144a.064.064 0 0 1-.092.002l-.544-.551a.125.125 0 0 0-.179 0l-1.623 1.646a.13.13 0 0 0 0 .18l.272.276c.05.05.13.05.179 0l1.209-1.224c.03-.03.078-.03.108 0l.554.562a.127.127 0 0 0 .185-.005l1.506-1.725v.467c0 .07.056.128.126.128h.343c.07 0 .127-.057.127-.128Z" clip-rule="evenodd"/>
</svg>
